X:1
T:My Boy Billy
M:4/4
L:1/8
K:G
 DD| GG FE| D2 d2 d2| Bd DD| GG FE| D2 Dd dd| Bd cd| e2 Bc| d2 AB|\
 cA GF| D2 GA BG| E2 AG| FD EF| GG GA BG| E2 AG| FD EF| GG z2||
